tools/download-figma-icons/icons/solid/coupon.svg

<svg width="24" height="24" viewBox="0 0 24 24" fill="none" xmlns="http://www.w3.org/2000/svg">
<path d="M23.34 11.025L12.975 0.66C12.5475 0.2325 11.985 0 11.385 0H2.25C1.0125 0 0 1.0125 0 2.25V11.385C0 11.985 0.2325 12.5475 0.66 12.975L11.025 23.34C11.4675 23.7825 12.045 24 12.615 24C13.185 24 13.77 23.7825 14.2125 23.34L23.34 14.2125C24.2175 13.3275 24.2175 11.9025 23.34 11.025ZM4.875 6.75C3.84 6.75 3 5.91 3 4.875C3 3.84 3.84 3 4.875 3C5.91 3 6.75 3.84 6.75 4.875C6.75 5.91 5.91 6.75 4.875 6.75ZM17.0325 11.7825L11.7825 17.0325C11.6325 17.175 11.445 17.25 11.25 17.25C11.055 17.25 10.8675 17.175 10.7175 17.0325C10.425 16.74 10.425 16.26 10.7175 15.9675L15.9675 10.7175C16.26 10.425 16.74 10.425 17.0325 10.7175C17.325 11.01 17.325 11.49 17.0325 11.7825Z" fill="black"/>
</svg>

<svg width="24" height="24" viewBox="0 0 24 24" fill="none" xmlns="http://www.w3.org/2000/svg"><path d="M23.34 11.025 12.975.66a2.23 2.23 0 0 0-1.59-.66H2.25A2.257 2.257 0 0 0 0 2.25v9.135c0 .6.233 1.162.66 1.59L11.025 23.34c.442.442 1.02.66 1.59.66a2.26 2.26 0 0 0 1.598-.66l9.127-9.127a2.259 2.259 0 0 0 0-3.188ZM4.875 6.75a1.876 1.876 0 1 1 .001-3.751 1.876 1.876 0 0 1-.001 3.751Zm12.157 5.033-5.25 5.25a.768.768 0 0 1-.532.217.768.768 0 0 1-.533-.218.756.756 0 0 1 0-1.065l5.25-5.25a.756.756 0 0 1 1.065 0 .756.756 0 0 1 0 1.066Z" fill="currentColor"/></svg>
